X:254
T:Stoney Path Tower 
C:Joe Buchanan's Scottish Tome - Page 305.1
I:305 1
C:J. Johnstone
R:Jig
Z:Carl Allison
L:1/8
M:6/8
K:G
d |"G" G2 A  BGB|"G" ded B3 |"C"ece "C7"dBd |"D7" ded "B7"BAB |
"Em"G2 A BGB | "G"ded "Em"B3 |"C"ece "D"dBA |"G7"G3 G2 :|
d | "Em"gfg "A"a2 g | "D"fdd "G7"d2 =f | "C"ece "A7"gfe | "G"dBB "Em"B2 d |
"Am"cBc "D7"edc |"G7" B2 d "Em"g2 f | "Am"ece "D7"dBA |"G" G3 G2 :|

